public/images/icon_scope.svg

<svg fill="none" height="24" viewBox="0 0 24 24" width="24" xmlns="http://www.w3.org/2000/svg"><path d="m11.2 5.60002h12.8m-12.8 12.79998h12.8m-21.59995-15.99998h3.2c.88365 0 1.6.71635 1.6 1.6v3.2c0 .88366-.71635 1.6-1.6 1.6h-3.2c-.88366 0-1.600001-.71634-1.600001-1.6v-3.2c0-.88365.716341-1.6 1.600001-1.6zm0 12.79998h3.2c.88365 0 1.6.7164 1.6 1.6v3.2c0 .8837-.71635 1.6-1.6 1.6h-3.2c-.88366 0-1.600001-.7163-1.600001-1.6v-3.2c0-.8836.716341-1.6 1.600001-1.6z" stroke="#686868"/></svg>

<svg width="24" height="24" viewBox="0 0 24 24" fill="none" xmlns="http://www.w3.org/2000/svg">
<path d="M11.2 5.60002H24M11.2 18.4H24M2.40005 2.40002H5.60005C6.4837 2.40002 7.20005 3.11637 7.20005 4.00002V7.20002C7.20005 8.08368 6.4837 8.80002 5.60005 8.80002H2.40005C1.51639 8.80002 0.800049 8.08368 0.800049 7.20002V4.00002C0.800049 3.11637 1.51639 2.40002 2.40005 2.40002ZM2.40005 15.2H5.60005C6.4837 15.2 7.20005 15.9164 7.20005 16.8V20C7.20005 20.8837 6.4837 21.6 5.60005 21.6H2.40005C1.51639 21.6 0.800049 20.8837 0.800049 20V16.8C0.800049 15.9164 1.51639 15.2 2.40005 15.2Z" stroke="#686868"/>
</svg>
